X: 21936
T: Kitty Goes A-Milking
R: reel
M: 4/4
K: Gmajor
|:dG~G2d3e|dBcA (3EFG AG|dG~G2 dcde|fdcA GA (3BAG|
dG~G2 dg (3ege|dBcA (3EFG AG|~G2BG ~G2dg|fdcA AG G2:|
|:dg~g2 bgaf|dg~g2 abag|dg~g2 bgag|fdcA GABd|
~g3b ~a3b|(3bag ag f3g|af (3gfe fdeg|1 fdcA G2 (3ABc:|2 fdcA G2 ge||

